X:1
T:Sunninghill, CMD
T:George Job Elvey, 1887
T:Sunninghill, CMD
T:Public Domain
C:George Job Elvey, 1887
Z:Public Domain
%%score ( 1 2 ) ( 3 4 )
L:1/8
M:none
K:C
V:1 treble 
V:2 treble 
V:3 bass 
V:4 bass 
V:1
 [EG]2 | [Ee]2 [FB]2 [Gc]2 [EG]2 | [FA]2 (GF) [CE]2 G2 | [FA]2 (Ac) [Fd]2 [Ec]2 | [DB]6 [Gd]2 | %5
 G2 z d [Ec]2 [EA]2 | D2 z c [GB]2 [DG]2 | [CE]2 [Cc]2 B2 z C x | [B,G]6 [Gd]2 | %9
 [GB]2 (AG) [Gc]2 [Ge]2 | [Gd]2 (c[GB]) [Gc]2 [Ec]2 | C2 z A [Fd]2 [Ec]2 | [EB]6 [EB]2 | %13
 [Ec]2 [Fd]2 [DB]2 [Cc]2 | [CA]2 (BA) [FG]2 [EG]2 | [FA]2 (EF) c2 z F x | [Ec]6 |] %17
V:2
 x2 | x8 | x2 E2 x G2 x | x2 G2 x4 | x8 | e3 E2 x3 | d3 ^F2 x3 | x4 D3 A2 | x8 | x8 | x8 | %11
 A3 E2 x3 | x8 | x8 | x2 F2 x4 | x2 c2 G3 B2 | x6 |] %17
V:3
 [C,C]2 | [C,G,]2 [D,D]2 [E,C]2 [C,C]2 | [F,C]2 [G,B,]2 [C,C]2 [E,C]2 | %3
 [F,C]2 [E,G,]2 [D,A,]2 (E,F,) | G,6 [G,B,]2 | C2 [^G,B,]2 [A,C]2 (A,=G,) | %6
 [^F,A,]2 [D,D]2 [G,D]2 [B,,G,]2 | [C,G,]2 [A,,A,]2 [D,G,]2 [D,^F,]2 x | [G,,G,]6 [G,B,]2 | %9
 [F,D]2 (CB,) [E,C]2 [C,C]2 | [F,B,]2 (CD) [E,C]2 [C,G,]2 | [F,A,]2 [^C,A,]2 [D,A,]2 [A,,A,]2 | %12
 [E,^G,]6 [E,G,]2 | A,2 [F,A,]2 G,2 [E,G,]2 | [F,A,]2 [D,D]2 [B,,D]2 [C,C]2 | %15
 [F,C]2 (CD) [G,E]2 [G,D]2 x | [C,C]6 |] %17
V:4
 x2 | x8 | x8 | x6 G,2 | G,6 x2 | C2 x2 C2 x2 | x8 | x9 | x8 | x2 F,2 x4 | x2 F,2 x4 | x8 | x8 | %13
 A,2 G,2 x4 | x8 | x2 A,2 x5 | x6 |] %17

